!!!ONB: MCCC : ILB0187_01 : Extracted Monophonic Melody
!!!COM: Beethoven, Ludwig van
!!!OPR: Piano Sonata No.26
!!!OMV: 1
!!!SCT: Op.81a
!!!ODT: 1809///
**kern
*thru
*staff1
*>I
*Ipiano
*clefG2
*k[b-e-a-]
*E-:
*M2/4
*MM60
=1
4g
4f
=2
4.e-
16.e-
32a-
=3
8g
16.g
32dd-
8cc
16.cc
32dd
=4
8.ee-
16cc
8b
16gg
16eee-
=5
8.eee-
16ccc
8bb
8bb-
=6
4bb-[
24bb-]
24b-
24cc
24a
24b-
24a-
=7
4g
4f
=8
4.e-
16.g-
32cc-
=9
8cc-
16.b-
32ff-
8ee-
16.ee-
32ff
=10
8.gg-
16ee-
8dd
16.dd-
32ee-
=11
8.ff-
32ee-
32dd-
8cc-
8ee-
=12
8dd
8r
16r
16dd
16ee-
16ee-
=13
8ff
8r
16r
16dd
16ee-
16ee-
=14
8ff
8r
16r
16ff
16gg
16aa-
=15
8aa-
8r
16r
16ff
16gg
16aa-
=16
8r
8aa-
8r
8aa-
=17
*>A
*M2/2
*MM188
2.aa-
8dd
8gg
=18
4gg
8cc
8ff
4ff
8b-
8ee-
=19
2ee-
4dd
4ee-
=20
4ff
4gg
4aa-
4bb-
=21
4gg
4r
4bb-
4r
=22
*8va
2.bbb-
*X8va
[4bb-
=23
2.bb-]
4gg
=24
4ff
4dd
4cc-
4b-
=25
4b-
4r
4bb-
4r
=26
*8va
2.bbb-
*X8va
[4bb-
=27
2.bb-]
4gg
=28
4ee
4ff
4cc
4ee-
=29
8dd
8b-
8a
8b-
8cc
8dd
8ee-
8ff
=30
2gg
8ccc
8bb-
8aa-
8gg
=31
4ff
4r
*8va
8cccc
8bbb-
8aaa-
8ggg
=32
4fff
*X8va
8ccc
8bb-
8aa-
8gg
8ff
8ff#
=33
8gg
8aa
8bb
8bb
8ccc
8ddd
8eee-
8eee
=34
4eee
4r
4fff
4r
=35
2.ee-
4ff
=36
1gg-
=37
2.ee-
4ff
=38
1gg
=39
4gg-
8b-
8a
8b-
8a
8b-
8a
=40
4ff
8cc
8b
8cc
8b
8cc
8b
=41
4ff
8dd
8cc
4ff
8cc
8b-
=42
4ff
8b-
8a
4ff
8cc
8b-
=43
4gg-
8b-
8a
8b-
8a
8b-
8a
=44
4ff
8cc
8b
8cc
8b
8cc
8b
=45
4ff
8dd
8cc
4ff
8cc
8b
=46
4ff
8dd
8cc
4ff
[4ee-
=47
4ee-]
4dd
4cc
[4eee-
=48
4eee-]
4ddd
4ccc
4ggg
=49
4ggg
2fff
4eee-
=50
8ddd
8ff
8gg
8ff
8gg
8ff
8gg
8ff
=51
8ccc
8ee-
8ff
8ee-
8ff
8ee-
8ff
8ee-
=52
2bb-
8gg
8b-
8ff
8b-
=53
4ff
4ee-
4dd
8cc
8f
=54
8dd
8f
8g
8f
8g
8f
8g
8f
=55
8cc
8e-
8f
8e-
8f
8e-
8f
8e-
=56
2b-
8g
8B-
8f
8B-
=57
4f
4e-
4d
8c
8F
=58
8B-
8G-
4G-
8B-
8F
8D
8B-[
=59
8B-]
8B-
8A
8B-
8c
8d
8e-
8c
=60
8b-
8g-
4g-
8b-
8f
8d
8b-[
=61
8b-]
8b-
8a
8b-
8cc
8dd
8ee-
8cc
=62
8dd
8cc
4.b-
8g
[4f
=63
8f]
8e-
4.d
8c
[4B-
=64
8B-]
8G
4.F
8E-
[4D
=65
8D]
8C
4.BB-
8C
[4BB-
=66
4BB-]
4r
2r
=67
1r
=68
*>A1
1ff
=69
1gg
=70
*>A
*M2/2
2.aa-
8dd
8gg
=71
4gg
8cc
8ff
4ff
8b-
8ee-
=72
2ee-
4dd
4ee-
=73
4ff
4gg
4aa-
4bb-
=74
4gg
4r
4bb-
4r
=75
*8va
2.bbb-
*X8va
[4bb-
=76
2.bb-]
4gg
=77
4ff
4dd
4cc-
4b-
=78
4b-
4r
4bb-
4r
=79
*8va
2.bbb-
*X8va
[4bb-
=80
2.bb-]
4gg
=81
4ee
4ff
4cc
4ee-
=82
8dd
8b-
8a
8b-
8cc
8dd
8ee-
8ff
=83
2gg
8ccc
8bb-
8aa-
8gg
=84
4ff
4r
*8va
8cccc
8bbb-
8aaa-
8ggg
=85
4fff
*X8va
8ccc
8bb-
8aa-
8gg
8ff
8ff#
=86
8gg
8aa
8bb
8bb
8ccc
8ddd
8eee-
8eee
=87
4eee
4r
4fff
4r
=88
2.ee-
4ff
=89
1gg-
=90
2.ee-
4ff
=91
1gg
=92
4gg-
8b-
8a
8b-
8a
8b-
8a
=93
4ff
8cc
8b
8cc
8b
8cc
8b
=94
4ff
8dd
8cc
4ff
8cc
8b-
=95
4ff
8b-
8a
4ff
8cc
8b-
=96
4gg-
8b-
8a
8b-
8a
8b-
8a
=97
4ff
8cc
8b
8cc
8b
8cc
8b
=98
4ff
8dd
8cc
4ff
8cc
8b
=99
4ff
8dd
8cc
4ff
[4ee-
=100
4ee-]
4dd
4cc
[4eee-
=101
4eee-]
4ddd
4ccc
4ggg
=102
4ggg
2fff
4eee-
=103
8ddd
8ff
8gg
8ff
8gg
8ff
8gg
8ff
=104
8ccc
8ee-
8ff
8ee-
8ff
8ee-
8ff
8ee-
=105
2bb-
8gg
8b-
8ff
8b-
=106
4ff
4ee-
4dd
8cc
8f
=107
8dd
8f
8g
8f
8g
8f
8g
8f
=108
8cc
8e-
8f
8e-
8f
8e-
8f
8e-
=109
2b-
8g
8B-
8f
8B-
=110
4f
4e-
4d
8c
8F
=111
8B-
8G-
4G-
8B-
8F
8D
8B-[
=112
8B-]
8B-
8A
8B-
8c
8d
8e-
8c
=113
8b-
8g-
4g-
8b-
8f
8d
8b-[
=114
8b-]
8b-
8a
8b-
8cc
8dd
8ee-
8cc
=115
8dd
8cc
4.b-
8g
[4f
=116
8f]
8e-
4.d
8c
[4B-
=117
8B-]
8G
4.F
8E-
[4D
=118
8D]
8C
4.BB-
8C
[4BB-
=119
4BB-]
4r
2r
=120
1r
=121
*>A2
1ff
=122
1aa-
=123
*>B
2.gg
8dd
8gg
=124
4gg
8cc
8ff
4ff
8cc
8ee-
=125
4ee-
8a
8dd
4dd
8gg
8ccc
=126
1f
=127
1e-
=128
[1ee-
=129
2.ee-]
4dd-
=130
1dd-
=131
1cc
=132
[1aa
=133
1aa]
=134
1cc
=135
1cc-
=136
[1aa
=137
1aa]
=138
1cc-
=139
1b-
=140
[1aa-
=141
4aa-]
4bb-
4ccc-
4bb-
=142
[1aa-
=143
4aa-]
4bb-
4ccc-
4bb-
=144
2.eee-
8aa-
8ddd-
=145
4ddd-
8ff
8ccc-
4ccc-
4bb-
=146
4aa-
4gg-
4ff
4gg-
=147
1aa-
=148
1aa-
=149
1gg
=150
1ff
=151
1ee-
=152
1dd
=153
1cc
=154
1a-
=155
1g
=156
1a-
=157
1a-
=158
1a-
=159
1a-
=160
1a-
=161
2.a-
8A-
8a-
=162
8A-
8a-
8a-
8aa-
8a-
8aa-
8a-
8aa-
=163
2.aa-
8dd
8gg
=164
4gg
8cc
8ff
4ff
8b-
8ee-
=165
2ee-
4dd
4ee-
=166
4ff
4gg
4aa-
4bb-
=167
4gg
4r
4bb-
4r
=168
*8va
2.bbb-
*X8va
[4bb-
=169
2.bb-]
4gg
=170
4ff
4dd
4cc-
4b-
=171
4b-
4r
4bb-
4r
=172
*8va
2.bbb-
*X8va
[4bb-
=173
2.bb-]
4gg
=174
4ee
4ff
4cc
4ee-
=175
8dd
8b-
8a
8b-
8cc
8dd
8ee-
8ff
=176
2gg
8ccc
8bb-
8aa-
8gg
=177
4ff
8aa-
8gg
8ff
8ff#
8gg
8aa
=178
8bb
8bb
8ccc
8ddd
8eee-
8eee
8fff
8fff
=179
4ddd
4r
4eee-
4r
=180
2.a-
4b-
=181
1cc-
=182
2.a-
4b-
=183
1cc
=184
4cc-
8e-
8d
8e-
8d
8e-
8d
=185
4b-
8f
8e
8f
8e
8f
8e
=186
4b-
8g
8f
4b-
8f
8e-
=187
4b-
8e-
8d
4b-
8f
8e-
=188
4ccc-
8ee-
8dd
8ee-
8dd
8ee-
8dd
=189
4bb-
8ff
8ee
8ff
8ee
8ff
8ee
=190
4bb-
8gg
8ff
4bb-
8ff
8ee
=191
4bb-
8gg
8ff
4bb-
*8va
[4aaa-
=192
4aaa-]
4ggg
4fff
[4aaa-
=193
4aaa-]
4ggg
4fff
4cccc[
=194
4cccc]
2bbb-
4aaa-
*	*X8va
=195
1ggg
=196
1fff
=197
2eee-
8ccc
8ee-
8bb-
8ee-
=198
8bb-
8b-
4aa-
4gg
4ff
=199
1gg
=200
1ff
=201
2ee-
4cc
4b-
=202
4b-
4a-
4g
4f
=203
8e-
8c-
4c-
8e-
8B-
8G
8e-[
=204
8e-]
8e-
8d
8e-
8f
8g
8a-
8f
=205
8ee-
8cc-
4cc-
8ee-
8b-
8g
8ee-[
=206
8ee-]
8ee-
8dd
8ee-
8ff
8gg
8aa-
8ff
=207
8gg
8ff
4.ee-
8cc
[4b-
=208
8b-]
8a-
4.g
8f
[4e-
=209
8e-]
8c
4.B-
8A-
[4G
=210
8G]
8F
4.E-
8F
[4E-
=211
4E-]
4r
2r
=212
1r
=213
1bb-
=214
1ddd-
=215
2.ccc
8ff
8bb-
=216
4bb-
8ee-
8aa-
4aa-
8dd-
8gg
=217
4gg
8cc
8ff
4ff
4ff
=218
2ff
4ee
4ff
=219
4gg
4aa-
4bb-
4gg
=220
4aa-
4r
4ccc
4r
=221
*8va
2.cccc
*X8va
[4ccc
=222
2.ccc]
4aa-
=223
4gg
4ee
4dd-
4cc
=224
4cc
4r
4ccc
4r
=225
*8va
2.cccc
*X8va
[4ccc
=226
2.ccc]
4aa-
=227
4ff
4dd
4cc-
4b-
=228
4b-
4r
4bb-
4r
=229
*8va
2.bbb-
*X8va
[4bb-
=230
2.bb-]
4gg-
=231
4ff
4dd
4cc-
4b-
=232
4b-
4r
4bb-
4r
=233
*8va
4bbb-
4r
4cccc-
*X8va
4r
=234
1cc-
=235
1b-
=236
4a-
4r
2r
=237
1r
=238
1cc
=239
1b-
=240
4a
4r
2r
=241
1r
=242
1ff
=243
1ee-
=244
4dd
4r
2r
=245
1r
=246
1bb-
=247
1aa-
=248
1gg[
=249
2gg]
4aa-
4ff
=250
1gg
=251
1ff
=252
2ee-
4cc
4b-
=253
4b-
4a-
4g
4f
=254
8e-
8B-
8c
8B-
8A
8B-
8g
8e-
=255
8d
8e-
8f
8g
8a-
8a
8cc
8b-
=256
8a
8b-
8cc
8b-
8a
8b-
8gg
8ee-
=257
8dd
8ee-
8ff
8gg
8aa-
8aa
8ccc
8bb-
=258
8aa
8bb-
8ccc
8bb-
8aa
8bb-
8ggg
8eee-
=259
*8va
8ddd
8eee-
8fff
8ggg
8aaa-
8aaa
8cccc
8bbb-
=260
8aaa
8bbb-
8aaa-
8ggg
8fff
8eee-
8ddd
8ccc
*X8va
=261
8bb-
8aa-
8gg
8ff
8ee-
8dd
8ff
8aa-
=262
1gg
=263
1ff
=264
2ee-
4cc
4b-
=265
4b-
4a-
4g
4f
=266
8e-
8B-
8c
8B-
8A
8B-
8g
8e-
=267
8d
8e-
8f
8g
8a-
8a
8cc
8b-
=268
8a
8b-
8cc
8b-
8a
8b-
8gg
8ee-
=269
8dd
8ee-
8ff
8gg
8aa-
8aa
8ccc
8bb-
=270
8aa
8bb-
8ccc
8bb-
8aa
8bb-
8ggg
8eee-
=271
*8va
8ddd
8eee-
8fff
8ggg
8aaa-
8aaa
8cccc
8bbb-
=272
8bbb-
*X8va
8b-
8cc
8b-
8a
8b-
8gg
8ee-
=273
8dd
8ee-
8ff
8gg
8aa-
8aa
8ccc
8bb-
=274
8bb-
8B-
8c
8B-
8A
8B-
8g
8e-
=275
8A
8B-
8a-
8f
8d
8cc
8b-
8d
=276
1e-
=277
1B-
=278
4G
4r
2r
=279
1r
=280
1g
=281
1f
=282
4e-
4r
2r
=283
2r
4r
4g
=284
1f
=285
4e-
4r
4r
4gg
=286
1ff
=287
4ee-
4r
4r
4ggg
=288
4r
4ggg
4fff
4eee-
=289
4eee-
4r
2r
=290
4r
4g
4f
4e-
=291
4e-
4r
2r
=292
2.B-
4G
=293
2.B-
4G
=294
2.B-
4G
=295
2.B-
4d
=296
4e-
4r
2r
=297
1r
=298
8e-
8f
8e-
8d
8e-
8f
8g
8a-
=299
8b-
8cc
8dd
8ee-
8ff
8gg
8aa-
8bb-
=300
*8va
6ccc
6ddd
6eee-
8fff
8ggg
8aaa-
8bbb-
=301
2cccc
4bbb-
4r
=302
8eee-
8fff
8eee-
8ddd
10eee-
10fff
10ggg
10aaa-
10bbb-
=303
2cccc
4bbb-
4r
=304
8eee-
8fff
8eee-
8ddd
10eee-
10fff
10ggg
10aaa-
10bbb-
=305
1cccc
=306
4bbb-
*X8va
4r
2r
=307
4d
4r
2r
=308
4e-
4r
2r
==
*-
